static/logos/supabase-wordmark-color.svg

<svg width="100" height="20" viewBox="0 0 100 20" fill="none" xmlns="http://www.w3.org/2000/svg">
<g clip-path="url(#clip0_1_866)">
<path d="M26.0547 11.4907C26.1578 12.4548 27.0347 14.1075 29.5796 14.1075C31.7977 14.1075 32.864 12.6958 32.864 11.3186C32.864 10.079 32.0213 9.06331 30.3535 8.71898L29.1497 8.46076C28.6855 8.37469 28.376 8.11646 28.376 7.70328C28.376 7.22123 28.8574 6.85973 29.4593 6.85973C30.4222 6.85973 30.7833 7.49669 30.8521 7.99596L32.7607 7.56557C32.6576 6.65314 31.8494 5.12097 29.4421 5.12097C27.6194 5.12097 26.2783 6.3777 26.2783 7.89264C26.2783 9.08051 27.0175 10.0618 28.6511 10.4233L29.7688 10.6816C30.4222 10.8193 30.6802 11.1292 30.6802 11.5079C30.6802 11.9555 30.3191 12.3515 29.5624 12.3515C28.5652 12.3515 28.0664 11.7317 28.0149 11.0603L26.0547 11.4907Z" fill="#1C1C1C"/>
<path d="M40.1776 13.8492H42.3614C42.327 13.5565 42.2753 12.9712 42.2753 12.317V5.37915H39.9883V10.3028C39.9883 11.2841 39.4037 11.9727 38.3893 11.9727C37.3232 11.9727 36.8416 11.2152 36.8416 10.2684V5.37915H34.5547V10.7332C34.5547 12.5752 35.7239 14.073 37.7702 14.073C38.6642 14.073 39.6447 13.7287 40.1089 12.9368C40.1089 13.2811 40.1432 13.677 40.1776 13.8492Z" fill="#1C1C1C"/>
<path d="M46.9977 17.1202V13.0229C47.4102 13.591 48.2701 14.0558 49.4395 14.0558C51.8295 14.0558 53.4285 12.1621 53.4285 9.59698C53.4285 7.08354 52.0015 5.18982 49.5254 5.18982C48.2531 5.18982 47.3073 5.75791 46.929 6.41213V5.37918H44.7109V17.1202H46.9977ZM51.176 9.61421C51.176 11.1292 50.2476 12.0072 49.0782 12.0072C47.9092 12.0072 46.9634 11.112 46.9634 9.61421C46.9634 8.11646 47.9092 7.23846 49.0782 7.23846C50.2476 7.23846 51.176 8.11646 51.176 9.61421Z" fill="#1C1C1C"/>
<path d="M54.7266 11.5423C54.7266 12.868 55.8269 14.0903 57.6326 14.0903C58.8875 14.0903 59.6958 13.5049 60.1255 12.8335C60.1255 13.1606 60.16 13.6254 60.2116 13.8492H62.3094C62.2577 13.5566 62.2064 12.954 62.2064 12.5064V8.34025C62.2064 6.63591 61.209 5.12097 58.5267 5.12097C56.2569 5.12097 55.0359 6.58426 54.8985 7.90987L56.9274 8.34025C56.9963 7.59999 57.5465 6.96302 58.5436 6.96302C59.5068 6.96302 59.971 7.46226 59.971 8.06481C59.971 8.35748 59.8164 8.59851 59.3348 8.66736L57.2543 8.97724C55.8443 9.18383 54.7266 10.0274 54.7266 11.5423ZM58.1138 12.3859C57.3746 12.3859 57.0133 11.9039 57.0133 11.4046C57.0133 10.7504 57.4775 10.4233 58.0624 10.3373L59.971 10.0446V10.4233C59.971 11.9211 59.0768 12.3859 58.1138 12.3859Z" fill="#1C1C1C"/>
<path d="M66.7339 13.8493V12.8163C67.1807 13.5394 68.0748 14.0559 69.2442 14.0559C71.6518 14.0559 73.2337 12.1449 73.2337 9.5798C73.2337 7.06632 71.8063 5.15541 69.3303 5.15541C68.0748 5.15541 67.1464 5.7063 66.7681 6.30882V1.38519H64.5156V13.8493H66.7339ZM70.9464 9.59699C70.9464 11.1464 70.018 12.0072 68.8487 12.0072C67.6967 12.0072 66.7339 11.1292 66.7339 9.59699C66.7339 8.04759 67.6967 7.20405 68.8487 7.20405C70.018 7.20405 70.9464 8.04759 70.9464 9.59699Z" fill="#1C1C1C"/>
<path d="M74.5234 11.5423C74.5234 12.868 75.6238 14.0903 77.4293 14.0903C78.6844 14.0903 79.4928 13.5049 79.9224 12.8335C79.9224 13.1606 79.957 13.6254 80.0085 13.8492H82.1062C82.0549 13.5566 82.0033 12.954 82.0033 12.5064V8.34025C82.0033 6.63591 81.0059 5.12097 78.3234 5.12097C76.0537 5.12097 74.8329 6.58426 74.6954 7.90987L76.7241 8.34025C76.7931 7.59999 77.3434 6.96302 78.3405 6.96302C79.3036 6.96302 79.7678 7.46226 79.7678 8.06481C79.7678 8.35748 79.6131 8.59851 79.1315 8.66736L77.0511 8.97724C75.6412 9.18383 74.5234 10.0274 74.5234 11.5423ZM77.9109 12.3859C77.1715 12.3859 76.8102 11.9039 76.8102 11.4046C76.8102 10.7504 77.2744 10.4233 77.8592 10.3373L79.7678 10.0446V10.4233C79.7678 11.9211 78.8737 12.3859 77.9109 12.3859Z" fill="#1C1C1C"/>
<path d="M83.5859 11.4907C83.6889 12.4548 84.566 14.1075 87.1107 14.1075C89.329 14.1075 90.3949 12.6958 90.3949 11.3186C90.3949 10.079 89.5525 9.06331 87.8846 8.71898L86.6808 8.46076C86.2166 8.37469 85.9073 8.11646 85.9073 7.70328C85.9073 7.22123 86.3885 6.85973 86.9904 6.85973C87.9536 6.85973 88.3145 7.49669 88.3835 7.99596L90.292 7.56557C90.1887 6.65314 89.3806 5.12097 86.9734 5.12097C85.1505 5.12097 83.8095 6.3777 83.8095 7.89264C83.8095 9.08051 84.5486 10.0618 86.1823 10.4233L87.3001 10.6816C87.9536 10.8193 88.2114 11.1292 88.2114 11.5079C88.2114 11.9555 87.8503 12.3515 87.0937 12.3515C86.0963 12.3515 85.5978 11.7317 85.5462 11.0603L83.5859 11.4907Z" fill="#1C1C1C"/>
<path d="M93.8666 8.65013C93.9183 7.87545 94.5718 6.98021 95.7582 6.98021C97.0649 6.98021 97.6153 7.80658 97.6498 8.65013H93.8666ZM97.8733 10.8537C97.5981 11.6112 97.0134 12.1449 95.9474 12.1449C94.8124 12.1449 93.8666 11.3358 93.8153 10.2168H99.8678C99.8678 10.1823 99.9021 9.83801 99.9021 9.5109C99.9021 6.79085 98.3375 5.12097 95.7238 5.12097C93.5573 5.12097 91.5625 6.87693 91.5625 9.57978C91.5625 12.4375 93.6086 14.1075 95.9301 14.1075C98.0107 14.1075 99.352 12.8852 99.782 11.4218L97.8733 10.8537Z" fill="#1C1C1C"/>
<path d="M10.9644 18.9817C10.4722 19.6015 9.47433 19.2619 9.46247 18.4705L9.28906 6.89545H17.0721C18.4819 6.89545 19.2681 8.52369 18.3915 9.62775L10.9644 18.9817Z" fill="url(#paint0_linear_1_866)"/>
<path d="M10.9644 18.9817C10.4722 19.6015 9.47433 19.2619 9.46247 18.4705L9.28906 6.89545H17.0721C18.4819 6.89545 19.2681 8.52369 18.3915 9.62775L10.9644 18.9817Z" fill="url(#paint1_linear_1_866)" fill-opacity="0.2"/>
<path d="M7.8034 0.356489C8.29557 -0.263374 9.2935 0.0762662 9.30536 0.867671L9.38135 12.4427H1.69567C0.285906 12.4427 -0.500347 10.8145 0.376288 9.71044L7.8034 0.356489Z" fill="#3ECF8E"/>
</g>
<defs>
<linearGradient id="paint0_linear_1_866" x1="9.28906" y1="9.46194" x2="16.2064" y2="12.3631" gradientUnits="userSpaceOnUse">
<stop stop-color="#249361"/>
<stop offset="1" stop-color="#3ECF8E"/>
</linearGradient>
<linearGradient id="paint1_linear_1_866" x1="6.22228" y1="5.26297" x2="9.37695" y2="11.2015" gradientUnits="userSpaceOnUse">
<stop/>
<stop offset="1" stop-opacity="0"/>
</linearGradient>
<clipPath id="clip0_1_866">
<rect width="100" height="19.4492" fill="white"/>
</clipPath>
</defs>
</svg>

<svg xmlns="http://www.w3.org/2000/svg" width="320" height="64" fill="none" viewBox="0 0 100 20"><g clip-path="url(#a)"><path fill="#1C1C1C" d="M26.055 11.49c.103.965.98 2.617 3.525 2.617 2.218 0 3.284-1.411 3.284-2.788 0-1.24-.843-2.256-2.51-2.6l-1.204-.258c-.464-.086-.774-.345-.774-.758 0-.482.481-.843 1.083-.843.963 0 1.324.637 1.393 1.136l1.909-.43c-.103-.913-.912-2.445-3.319-2.445-1.823 0-3.164 1.257-3.164 2.772 0 1.188.74 2.169 2.373 2.53l1.118.259c.653.137.911.447.911.826 0 .448-.36.844-1.118.844-.997 0-1.496-.62-1.547-1.292l-1.96.43ZM40.178 13.85h2.183a13.939 13.939 0 0 1-.086-1.533V5.379h-2.287v4.924c0 .981-.584 1.67-1.599 1.67-1.066 0-1.547-.758-1.547-1.705V5.38h-2.287v5.354c0 1.842 1.169 3.34 3.215 3.34.894 0 1.875-.344 2.339-1.136 0 .344.034.74.069.912ZM46.998 17.12v-4.097c.412.568 1.272 1.033 2.442 1.033 2.39 0 3.989-1.894 3.989-4.459 0-2.513-1.428-4.407-3.904-4.407-1.272 0-2.218.568-2.596 1.222V5.38h-2.218V17.12h2.287Zm4.178-7.506c0 1.515-.928 2.393-2.098 2.393-1.169 0-2.115-.895-2.115-2.393 0-1.498.946-2.376 2.115-2.376 1.17 0 2.098.878 2.098 2.376ZM54.727 11.542c0 1.326 1.1 2.548 2.906 2.548 1.255 0 2.063-.585 2.492-1.256 0 .327.035.791.087 1.015h2.097a9.48 9.48 0 0 1-.103-1.343V8.34c0-1.704-.997-3.219-3.68-3.219-2.27 0-3.49 1.463-3.628 2.789l2.03.43c.068-.74.619-1.377 1.616-1.377.963 0 1.427.5 1.427 1.102 0 .292-.155.534-.636.602l-2.08.31c-1.41.207-2.528 1.05-2.528 2.565Zm3.387.844c-.74 0-1.1-.482-1.1-.981 0-.655.463-.982 1.048-1.068l1.909-.292v.378c0 1.498-.894 1.963-1.857 1.963ZM66.734 13.85v-1.034c.447.723 1.34 1.24 2.51 1.24 2.408 0 3.99-1.911 3.99-4.476 0-2.514-1.428-4.425-3.904-4.425-1.255 0-2.184.551-2.562 1.154V1.385h-2.252V13.85h2.218Zm4.212-4.253c0 1.55-.928 2.41-2.097 2.41-1.152 0-2.115-.878-2.115-2.41 0-1.55.963-2.393 2.115-2.393 1.169 0 2.097.844 2.097 2.393ZM74.523 11.542c0 1.326 1.1 2.548 2.906 2.548 1.255 0 2.064-.585 2.493-1.256 0 .327.035.791.087 1.015h2.097a9.542 9.542 0 0 1-.103-1.343V8.34c0-1.704-.997-3.219-3.68-3.219-2.27 0-3.49 1.463-3.628 2.789l2.03.43c.068-.74.618-1.377 1.616-1.377.963 0 1.427.5 1.427 1.102 0 .292-.155.534-.636.602l-2.08.31c-1.41.207-2.529 1.05-2.529 2.565Zm3.388.844c-.74 0-1.1-.482-1.1-.981 0-.655.463-.982 1.048-1.068l1.909-.292v.378c0 1.498-.894 1.963-1.857 1.963ZM83.586 11.49c.103.965.98 2.617 3.525 2.617 2.218 0 3.284-1.411 3.284-2.788 0-1.24-.843-2.256-2.51-2.6l-1.204-.258c-.464-.086-.774-.345-.774-.758 0-.482.481-.843 1.083-.843.964 0 1.325.637 1.394 1.136l1.908-.43c-.103-.913-.911-2.445-3.319-2.445-1.823 0-3.163 1.257-3.163 2.772 0 1.188.739 2.169 2.372 2.53l1.118.259c.654.137.911.447.911.826 0 .448-.36.844-1.117.844-.998 0-1.496-.62-1.548-1.292l-1.96.43ZM93.867 8.65c.051-.775.705-1.67 1.891-1.67 1.307 0 1.857.827 1.892 1.67h-3.783Zm4.006 2.204c-.275.757-.86 1.29-1.926 1.29-1.135 0-2.08-.808-2.132-1.927h6.053c0-.035.034-.379.034-.706 0-2.72-1.564-4.39-4.178-4.39-2.167 0-4.162 1.756-4.162 4.459 0 2.857 2.047 4.527 4.368 4.527 2.08 0 3.422-1.222 3.852-2.685l-1.909-.568Z"/><path fill="url(#b)" d="M10.964 18.982c-.492.62-1.49.28-1.502-.511L9.29 6.895h7.783c1.41 0 2.196 1.629 1.32 2.733l-7.428 9.354Z"/><path fill="url(#c)" fill-opacity=".2" d="M10.964 18.982c-.492.62-1.49.28-1.502-.511L9.29 6.895h7.783c1.41 0 2.196 1.629 1.32 2.733l-7.428 9.354Z"/><path fill="#3ECF8E" d="M7.803.356c.493-.62 1.49-.28 1.502.512l.076 11.575H1.696c-1.41 0-2.196-1.628-1.32-2.733L7.803.356Z"/></g><defs><linearGradient id="b" x1="9.289" x2="16.206" y1="9.462" y2="12.363" gradientUnits="userSpaceOnUse"><stop stop-color="#249361"/><stop offset="1" stop-color="#3ECF8E"/></linearGradient><linearGradient id="c" x1="6.222" x2="9.377" y1="5.263" y2="11.201" gradientUnits="userSpaceOnUse"><stop/><stop offset="1" stop-opacity="0"/></linearGradient><clipPath id="a"><path fill="#fff" d="M0 0h100v19.449H0z"/></clipPath></defs></svg>
